X:1
T:James Gibb editions
T:O Lord of heaven and earth and sea - Barnby
%%score [ ( 1 2 ) ( 3 4 ) ]
L:1/8
Q:1/4=84
M:4/4
K:Bb
V:1 treble nm="Midi_74"
V:2 treble 
V:3 bass nm="Midi_74"
V:4 bass 
V:1
"^Christopher Wordsworth\n(1807-85)""^888. 4""^O Lord of heaven and earth and sea""^Joseph Barnby\n(1838-96)" F2 | %1
 B2 B2 e2 d2 | d2 cB c2 || d2 | B2 A2 G2 c2 | A3 G F2 ||[M:4/4] F2 | B2 _A2 G2 B2 | c2 B2 A2 || %9
 B2 | (cded) c4 | B6 || B4 B4 |] %13
V:2
 F2 | D2 D2 E2 F2 | F2 F2 F2 || D2 | D2 ^F2 G2 C2 | C2 =E2 F2 ||[M:4/4] F2 | F2 D2 E2 F2 | %8
 =E2 G2 F2 || F2 | (G2 E2) E4 | D6 || E4 D4 |] %13
V:3
 F,2 | B,2 F,2 G,2 F,2 | B,2 A,G, A,2 || A,2 | B,2 C2 D2 G,2 | A,2 B,2 A,2 || %6
[M:4/4]"^1 O Lord of heaven and earth and sea,\nto Thee all praise and glory be;\nhow shall we show our love to Thee\nwho givest all?\n\n2 The golden sunshine, vernal air,\nsweet flowers and fruits Thy love declare;\nwhen harvests ripen, Thou art there,\nwho givest all.\n\n3 For peaceful homes and healthful days,\nfor all the blessings earth displays,\nwe owe Thee thankfulness and praise,\nwho givest all." A,2 | %7
 B,2 B,2 B,2 B,2 | G,2 C2 C2 || %9
"^4 Thou didst not spare Thine only Son,\nbut gav'st Him for a world undone,\nand freely with that blessed One\nThou givest all.\n\n5 Thou giv'st the Holy Spirit's dower,\nSpirit of life and love and power,\nand dost His sevenfold graces shower\nupon us all.\n\n6 For souls redeemed, for sins forgiven,\nfor means of grace and hopes of heaven,\nFather, what can to thee be given,\nwho givest all?" B,2 | %10
 B,4 (B,2 A,2) | B,6 || G,4 F,4 |] %13
V:4
 F,2 | B,,2 B,,2 B,,2 B,,2 | F,2 F,2 F,2 || ^F,2 | G,2 A,2 B,2 =E,2 | F,2 C,2 F,2 ||[M:4/4] E,2 | %7
 D,2 B,,2 E,2 D,2 | C,2 =E,2 F,2 || D,2 | (E,2 C,2) F,4 | B,,6 || E,4 B,,4 |] %13

